icons/communication/email-24.svg

<svg width="24" height="24" viewBox="0 0 24 24" fill="none" xmlns="http://www.w3.org/2000/svg">
<g clip-path="url(#clip0_262_73)">
<path fill-rule="evenodd" clip-rule="evenodd" d="M1.75 3C1.28587 3 0.840752 3.18437 0.512563 3.51256C0.184374 3.84075 0 4.28587 0 4.75L0 18.75C0 19.716 0.784 20.5 1.75 20.5H22.25C22.7141 20.5 23.1592 20.3156 23.4874 19.9874C23.8156 19.6592 24 19.2141 24 18.75V4.75C24 4.28587 23.8156 3.84075 23.4874 3.51256C23.1592 3.18437 22.7141 3 22.25 3H1.75ZM1.5 4.75C1.5 4.6837 1.52634 4.62011 1.57322 4.57322C1.62011 4.52634 1.6837 4.5 1.75 4.5H22.25C22.3163 4.5 22.3799 4.52634 22.4268 4.57322C22.4737 4.62011 22.5 4.6837 22.5 4.75V5.602L12.14 12.602C12.0987 12.6299 12.0499 12.6449 12 12.6449C11.9501 12.6449 11.9013 12.6299 11.86 12.602L1.5 5.602V4.75V4.75ZM1.5 7.412V18.75C1.5 18.888 1.612 19 1.75 19H22.25C22.3163 19 22.3799 18.9737 22.4268 18.9268C22.4737 18.8799 22.5 18.8163 22.5 18.75V7.412L12.98 13.845C12.388 14.245 11.612 14.245 11.02 13.845L1.5 7.412Z" fill="black"/>
</g>
<defs>
<clipPath id="clip0_262_73">
<rect width="24" height="24" fill="white"/>
</clipPath>
</defs>
</svg>

<svg xmlns="http://www.w3.org/2000/svg" width="24" height="24"><path fill-rule="evenodd" d="M1.75 3A1.75 1.75 0 000 4.75v14c0 .966.784 1.75 1.75 1.75h20.5A1.75 1.75 0 0024 18.75v-14A1.75 1.75 0 0022.25 3H1.75zM1.5 4.75a.25.25 0 01.25-.25h20.5a.25.25 0 01.25.25v.852l-10.36 7a.25.25 0 01-.28 0l-10.36-7V4.75zm0 2.662V18.75c0 .138.112.25.25.25h20.5a.25.25 0 00.25-.25V7.412l-9.52 6.433c-.592.4-1.368.4-1.96 0L1.5 7.412z"/></svg>
